X: 21163
M: 6/8
L: 1/8
K: G
V: 1 name="3"
e |\
ed^c cBA | Adf d3 | A^ce Ace | d3 A2e |\
ed^c cBA | Adf d3 | A2A AB^c | d3- "^D.C>"d2 |]
g2g g2g | f3 dcd | e2c ABC | d2f a2f |\
g2g g2g | f3 dcd | e2c ABC | d3- "^D.C>"d2 |]


